Simply-Cyan-Circles/scalable/mimes/gnome-mime-text-x-vcalendar.svg

<svg xmlns="http://www.w3.org/2000/svg" width="48" height="48" viewBox="0 0 12.7 12.7"><path d="M3.068.321a.768.768 0 0 0-.77.77v1.232h1.54V1.09a.768.768 0 0 0-.77-.77zm6.51 0a.768.768 0 0 0-.77.77v1.232h1.539V1.09a.768.768 0 0 0-.77-.77zM.18 2.671v2.104h.013v5.427c0 .637.246 1.182.737 1.634.491.453 1.083.679 1.775.679H9.96c.692 0 1.283-.226 1.775-.679.49-.452.736-.997.736-1.634v-6.31h-.008V2.672H.181zm1.13 2.104h10.044v5.427c0 .354-.136.656-.41.908a1.403 1.403 0 0 1-.985.377H2.706c-.384 0-.712-.126-.986-.377a1.19 1.19 0 0 1-.41-.908V4.775zM4.448 5.9a2.38 2.38 0 0 0-.543.07 4.497 4.497 0 0 0-.639.207v.571c.224-.125.434-.218.63-.28.198-.061.385-.092.563-.092.25 0 .452.07.607.21.157.14.235.321.235.543a.909.909 0 0 1-.109.417 2.62 2.62 0 0 1-.378.516c-.095.108-.328.35-.7.725-.37.373-.661.67-.876.893v.476h2.654V9.68H3.92c.455-.465.808-.826 1.058-1.084.25-.26.398-.416.445-.47.17-.21.286-.39.35-.544.065-.154.098-.318.098-.49 0-.362-.129-.651-.387-.868-.257-.216-.602-.324-1.035-.324zm3.65.075l-.999.202v.515l1.005-.201V9.68H7.18v.476h2.408V9.68h-.924V5.975H8.1z" fill="#5beedc"/></svg>

<?xml version="1.0" encoding="UTF-8" standalone="no"?>
<svg
   xmlns:dc="http://purl.org/dc/elements/1.1/"
   xmlns:cc="http://creativecommons.org/ns#"
   xmlns:rdf="http://www.w3.org/1999/02/22-rdf-syntax-ns#"
   xmlns:svg="http://www.w3.org/2000/svg"
   xmlns="http://www.w3.org/2000/svg"
   xmlns:sodipodi="http://sodipodi.sourceforge.net/DTD/sodipodi-0.dtd"
   xmlns:inkscape="http://www.inkscape.org/namespaces/inkscape"
   width="48"
   height="48"
   viewBox="0 0 12.7 12.7"
   version="1.1"
   id="svg4"
   sodipodi:docname="gnome-mime-text-x-vcalendar.svg"
   inkscape:version="0.92.4 (5da689c313, 2019-01-14)">
  <metadata
     id="metadata10">
    <rdf:RDF>
      <cc:Work
         rdf:about="">
        <dc:format>image/svg+xml</dc:format>
        <dc:type
           rdf:resource="http://purl.org/dc/dcmitype/StillImage" />
        <dc:title></dc:title>
      </cc:Work>
    </rdf:RDF>
  </metadata>
  <defs
     id="defs8" />
  <sodipodi:namedview
     pagecolor="#ffffff"
     bordercolor="#666666"
     borderopacity="1"
     objecttolerance="10"
     gridtolerance="10"
     guidetolerance="10"
     inkscape:pageopacity="0"
     inkscape:pageshadow="2"
     inkscape:window-width="1087"
     inkscape:window-height="480"
     id="namedview6"
     showgrid="false"
     inkscape:zoom="4.9166667"
     inkscape:cx="2.1355932"
     inkscape:cy="24"
     inkscape:window-x="0"
     inkscape:window-y="25"
     inkscape:window-maximized="0"
     inkscape:current-layer="svg4" />
  <path
     d="m 3.068,0.321 a 0.768,0.768 0 0 0 -0.77,0.77 v 1.232 h 1.54 V 1.09 A 0.768,0.768 0 0 0 3.068,0.32 Z m 6.51,0 a 0.768,0.768 0 0 0 -0.77,0.77 v 1.232 h 1.539 V 1.09 A 0.768,0.768 0 0 0 9.577,0.32 Z M 0.18,2.671 v 2.104 h 0.013 v 5.427 c 0,0.637 0.246,1.182 0.737,1.634 0.491,0.453 1.083,0.679 1.775,0.679 H 9.96 c 0.692,0 1.283,-0.226 1.775,-0.679 0.49,-0.452 0.736,-0.997 0.736,-1.634 V 3.892 H 12.463 V 2.672 H 0.181 Z m 1.13,2.104 h 10.044 v 5.427 c 0,0.354 -0.136,0.656 -0.41,0.908 A 1.403,1.403 0 0 1 9.959,11.487 H 2.706 C 2.322,11.487 1.994,11.361 1.72,11.11 A 1.19,1.19 0 0 1 1.31,10.202 Z M 4.448,5.9 A 2.38,2.38 0 0 0 3.905,5.97 4.497,4.497 0 0 0 3.266,6.177 V 6.748 C 3.49,6.623 3.7,6.53 3.896,6.468 4.094,6.407 4.281,6.376 4.459,6.376 c 0.25,0 0.452,0.07 0.607,0.21 0.157,0.14 0.235,0.321 0.235,0.543 A 0.909,0.909 0 0 1 5.192,7.546 2.62,2.62 0 0 1 4.814,8.062 C 4.719,8.17 4.486,8.412 4.114,8.787 3.744,9.16 3.453,9.457 3.238,9.68 v 0.476 H 5.892 V 9.68 H 3.92 C 4.375,9.215 4.728,8.854 4.978,8.596 5.228,8.336 5.376,8.18 5.423,8.126 5.593,7.916 5.709,7.736 5.773,7.582 5.838,7.428 5.871,7.264 5.871,7.092 5.871,6.73 5.742,6.441 5.484,6.224 5.227,6.008 4.882,5.9 4.449,5.9 Z M 8.098,5.975 7.099,6.177 V 6.692 L 8.104,6.491 V 9.68 H 7.18 v 0.476 H 9.588 V 9.68 H 8.664 V 5.975 H 8.1 Z"
     id="path2"
     inkscape:connector-curvature="0"
     style="fill:#5beedc" />
</svg>
